X:4660
T:Easy Club Reel
C:Jim Sutherland
R:reel
D:Four Men and a Dog: Barking Mad
Z:id:hn-reel-579
M:C|
K:A
~A3c BABd|cee^d eAce|fefg afec|dBcA BdcB|
AEAc BABd|ceef eAce|~f3g afed|1 cdBc A3E:|2 cdBc A2ag||
|:f2af dfaf|e2ae ceae|f2af defg|afec BdcB|
AEAc BABd|ceef eAce|~f3g afed|1 cdBc A2ag:|2 cdBc A3E||
